pp/person-checkmark.svg

<svg viewBox="0 0 20 20" fill="none" xmlns="http://www.w3.org/2000/svg" height="1em" width="1em">
  <path fill-rule="evenodd" clip-rule="evenodd" d="M7 5C6.20818 5 5.5 5.67902 5.5 6.6C5.5 7.52098 6.20818 8.2 7 8.2C7.79182 8.2 8.5 7.52098 8.5 6.6C8.5 5.67902 7.79182 5 7 5ZM3.5 6.6C3.5 4.6491 5.0304 3 7 3C8.9696 3 10.5 4.6491 10.5 6.6C10.5 8.5509 8.9696 10.2 7 10.2C5.0304 10.2 3.5 8.5509 3.5 6.6Z" fill="currentColor"/>
  <path fill-rule="evenodd" clip-rule="evenodd" d="M1 14.8333C1 11.538 3.78924 9.06665 7.01348 9.06665C10.2449 9.06665 13 11.5447 13 14.8333V17C13 17.5523 12.5523 18 12 18C11.4477 18 11 17.5523 11 17V14.8333C11 12.7527 9.24668 11.0667 7.01348 11.0667C4.77323 11.0667 3.00022 12.7593 3 14.8329C3 14.8331 3 14.8328 3 14.8329L3.0017 16.9992C3.00214 17.5515 2.55478 17.9995 2.00249 18C1.45021 18.0004 1.00214 17.5531 1.0017 17.0008L1 14.8333Z" fill="currentColor"/>
  <path fill-rule="evenodd" clip-rule="evenodd" d="M18.5968 4.12584C19.0795 4.39405 19.2535 5.00286 18.9853 5.48564L16.2075 10.4856C15.9393 10.9684 15.3305 11.1424 14.8477 10.8742C14.3649 10.6059 14.191 9.99714 14.4592 9.51436L17.237 4.51436C17.5052 4.03157 18.114 3.85763 18.5968 4.12584Z" fill="currentColor"/>
  <path fill-rule="evenodd" clip-rule="evenodd" d="M11.7747 7.15311C12.1197 6.72185 12.749 6.65193 13.1802 6.99694L15.958 9.21916C16.3893 9.56417 16.4592 10.1935 16.1142 10.6247C15.7692 11.056 15.1399 11.1259 14.7086 10.7809L11.9309 8.55868C11.4996 8.21367 11.4297 7.58437 11.7747 7.15311Z" fill="currentColor"/>
</svg>

<svg viewBox="0 0 20 20" fill="none" xmlns="http://www.w3.org/2000/svg" height="1em" width="1em">
  <path fill-rule="evenodd" clip-rule="evenodd" d="M7 5c-.792 0-1.5.679-1.5 1.6S6.208 8.2 7 8.2s1.5-.679 1.5-1.6S7.792 5 7 5ZM3.5 6.6C3.5 4.65 5.03 3 7 3s3.5 1.65 3.5 3.6c0 1.95-1.53 3.6-3.5 3.6S3.5 8.55 3.5 6.6Z" fill="currentColor"/>
  <path fill-rule="evenodd" clip-rule="evenodd" d="M1 14.833c0-3.295 2.79-5.766 6.013-5.766 3.232 0 5.987 2.478 5.987 5.766V17a1 1 0 1 1-2 0v-2.167c0-2.08-1.753-3.766-3.987-3.766-2.24 0-4.013 1.692-4.013 3.766l.002 2.166a1 1 0 0 1-2 .002L1 14.833ZM18.597 4.126a1 1 0 0 1 .388 1.36l-2.777 5a1 1 0 1 1-1.749-.972l2.778-5a1 1 0 0 1 1.36-.388Z" fill="currentColor"/>
  <path fill-rule="evenodd" clip-rule="evenodd" d="M11.775 7.153a1 1 0 0 1 1.405-.156l2.778 2.222a1 1 0 1 1-1.25 1.562l-2.777-2.222a1 1 0 0 1-.156-1.406Z" fill="currentColor"/>
</svg>
